Simply-Green-Circles/scalable/actions/mail-open-multiple.svg

<svg xmlns="http://www.w3.org/2000/svg" width="24" height="24"><path d="M4.08 3.67a.33.33 0 0 0-.33.33v1.9c0 .18.15.33.33.33h15.84c.18 0 .33-.15.33-.33V4a.33.33 0 0 0-.33-.33H4.08zm.98 3.3c-.36 0-.7.14-.93.38-.1.1-.1.26-.16.39l7.87 7.73h.76l7.56-7.4c-.05-.27-.11-.54-.3-.72a1.3 1.3 0 0 0-.92-.38H5.06zm-1.91 1.7A9.46 9.46 0 0 0 2.54 12a9.46 9.46 0 0 0 1.24 4.66l3.72-3.7-4.35-4.29zm17.82.35L17 12.97l1.87 1.88H21a9.46 9.46 0 0 0 .46-2.85 9.46 9.46 0 0 0-.49-2.98zm-12.55 4.8l-3.94 3.91A9.46 9.46 0 0 0 12 21.46a9.46 9.46 0 0 0 3.11-.54v-6.07h1.99l-1.04-1.02-2.9 2.9h-1.84l-2.9-2.9v-.01zm7.37 1.92v5.84h1.42V17.3l1.35 3.15h.95l1.34-3.15v4.27h1.43v-5.84h-1.91l-1.34 3.13-1.33-3.13H15.8z" fill="#2ca02c"/></svg>

<?xml version="1.0" encoding="UTF-8" standalone="no"?>
<svg
   xmlns:dc="http://purl.org/dc/elements/1.1/"
   xmlns:cc="http://creativecommons.org/ns#"
   xmlns:rdf="http://www.w3.org/1999/02/22-rdf-syntax-ns#"
   xmlns:svg="http://www.w3.org/2000/svg"
   xmlns="http://www.w3.org/2000/svg"
   xmlns:sodipodi="http://sodipodi.sourceforge.net/DTD/sodipodi-0.dtd"
   xmlns:inkscape="http://www.inkscape.org/namespaces/inkscape"
   width="24"
   height="24"
   version="1.1"
   id="svg4"
   sodipodi:docname="mail-open-multiple.svg"
   inkscape:version="0.92.4 (5da689c313, 2019-01-14)">
  <metadata
     id="metadata10">
    <rdf:RDF>
      <cc:Work
         rdf:about="">
        <dc:format>image/svg+xml</dc:format>
        <dc:type
           rdf:resource="http://purl.org/dc/dcmitype/StillImage" />
        <dc:title></dc:title>
      </cc:Work>
    </rdf:RDF>
  </metadata>
  <defs
     id="defs8" />
  <sodipodi:namedview
     pagecolor="#ffffff"
     bordercolor="#666666"
     borderopacity="1"
     objecttolerance="10"
     gridtolerance="10"
     guidetolerance="10"
     inkscape:pageopacity="0"
     inkscape:pageshadow="2"
     inkscape:window-width="1078"
     inkscape:window-height="480"
     id="namedview6"
     showgrid="false"
     inkscape:zoom="9.8333333"
     inkscape:cx="-0.81355932"
     inkscape:cy="12"
     inkscape:window-x="0"
     inkscape:window-y="28"
     inkscape:window-maximized="0"
     inkscape:current-layer="svg4" />
  <path
     d="M 4.08,3.67 A 0.33,0.33 0 0 0 3.75,4 v 1.9 c 0,0.18 0.15,0.33 0.33,0.33 h 15.84 c 0.18,0 0.33,-0.15 0.33,-0.33 V 4 A 0.33,0.33 0 0 0 19.92,3.67 Z m 0.98,3.3 c -0.36,0 -0.7,0.14 -0.93,0.38 -0.1,0.1 -0.1,0.26 -0.16,0.39 l 7.87,7.73 h 0.76 l 7.56,-7.4 C 20.11,7.8 20.05,7.53 19.86,7.35 A 1.3,1.3 0 0 0 18.94,6.97 Z M 3.15,8.67 A 9.46,9.46 0 0 0 2.54,12 9.46,9.46 0 0 0 3.78,16.66 L 7.5,12.96 Z M 20.97,9.02 17,12.97 18.87,14.85 H 21 A 9.46,9.46 0 0 0 21.46,12 9.46,9.46 0 0 0 20.97,9.02 Z m -12.55,4.8 -3.94,3.91 a 9.46,9.46 0 0 0 7.52,3.73 9.46,9.46 0 0 0 3.11,-0.54 v -6.07 h 1.99 l -1.04,-1.02 -2.9,2.9 h -1.84 l -2.9,-2.9 z m 7.37,1.92 v 5.84 h 1.42 V 17.3 l 1.35,3.15 h 0.95 l 1.34,-3.15 v 4.27 h 1.43 v -5.84 h -1.91 l -1.34,3.13 -1.33,-3.13 h -1.9 z"
     id="path2"
     inkscape:connector-curvature="0"
     style="fill:#2ca02c" />
</svg>
